icon/pk/usb-memory-stick.svg

<svg viewBox="0 0 48 48" fill="none" xmlns="http://www.w3.org/2000/svg" height="1em" width="1em">
  <path d="M8 22C8 20.8954 8.89543 20 10 20H38C39.1046 20 40 20.8954 40 22V42C40 43.1046 39.1046 44 38 44H10C8.89543 44 8 43.1046 8 42V22Z" fill="#2F88FF" stroke="black" stroke-width="4" stroke-linecap="round" stroke-linejoin="round"/>
  <path d="M15 4H33V20H15V4Z" fill="#2F88FF" stroke="black" stroke-width="4" stroke-linecap="round" stroke-linejoin="round"/>
  <path d="M21 10V12" stroke="white" stroke-width="4" stroke-linecap="round" stroke-linejoin="round"/>
  <path d="M27 10V12" stroke="white" stroke-width="4" stroke-linecap="round" stroke-linejoin="round"/>
</svg>

<svg width="48" height="48" fill="none" xmlns="http://www.w3.org/2000/svg"><path d="M8 22a2 2 0 0 1 2-2h28a2 2 0 0 1 2 2v20a2 2 0 0 1-2 2H10a2 2 0 0 1-2-2V22ZM15 4h18v16H15V4Z" fill="#2F88FF" stroke="#000" stroke-width="4" stroke-linecap="round" stroke-linejoin="round"/><path d="M21 10v2M27 10v2" stroke="#fff" stroke-width="4" stroke-linecap="round" stroke-linejoin="round"/></svg>
